!!!OTL: ICH ARMER HAS IM WEITEN FELD
!!!ARE: Europa, Mitteleuropa, Deutschland, Hessen, Darmstadt; Baden
!!!SCT: E0169
!!!YEM: Copyright 1995, estate of Helmut Schaffrath.
**kern
*ICvox
*Ivox
!! Mixed meters:  4/4; 3/4
*M4/4
*k[b-]
*F:
{8c
=1
4f
4a
4.g
8b-
=2
8.a
16b-
8cc
8dd
4.cc}
{8ff
=3
8cc
8b-
8b-
8dd
4cc
4a
=4
4g
4g
4f
8r}
{8c
=5
*M3/4
8f
8g
4.a
8b-
=6
4a
4g
8r}
{8g
=7
8g
8a
4.b-
8cc
=8
4b-
4a
8r}
{8g
=9
*M4/4
4.f
8a
4.g
8b-
=10
8.a
16b-
8cc
8dd
4.cc}
{8ff
=11
8cc
8b-
8b-
8dd
4cc
4a
=12
4g
4g
4f
8r}
==
!!!AGN: erzaehlendes Volks - Lied, Sage, Tier - Maerchen, Ballade ?
!!!ONB: ESAC (Essen Associative Code) Database: ERK1
!!!AMT: irregular
!!!AIN: vox
!!!EED: Helmut Schaffrath
!!!EEV: 1.0
*-
